X:1
T:Title
%%score { 1 | 2 }
L:1/8
M:6/4
K:G
V:1 treble nm="Grand Piano"
V:2 bass 
V:1
 z6 z4[Q:1/4=162] DD | G3 G G2 F2 G2 A2 | B3 B c2 B6 | [Fd]2 [FA]3 [GB] [Ac] [GB]3 [FA]2 | %4
 B6- B4 D2 | G3 G G2 F2 G2 A2 | B3 B c2 B6 | [Fd]2 [FA]3 [GB] [Ac] [GB]3 [CFA]2 | [B,G]12 | %9
 [CFA]3 [B,=F^G] [C^FA]2 [A,DF]2 [CFA]2 [EFc]2 | [DGB]3 [^CG_B] [DG=B]2 [B,DG]4 [B,DG]2 | %11
 [CFA]3 [B,=F^G] [C^FA]2 [A,DF]2 [CFA]2 [EFc]2 | B3 _B =B2 G4 G2 | e3 ^d e2 =d2 B2 G2 | %14
 [Ec]3 [^DB] [Ec]2 .[CE]6 | [B,D]2 [Gd]3 [Fc] [GB] [GB]3 [CDA]2 | [B,DG]12 | d2 B2 G2 d2 B2 G2 | %18
 c2 [Ac]2 [Gc]2 [Fc]4 [FA]2 | [Ac]2 [GB]2 [FA]2 [Ac]2 [GB]2 A2 | d2 d2 d2 d4 B2 | %21
 d2 B2 G2 d2 B2 G2 | [Ge]2 e2 [Ge]2 [Ge]2 [EGA]2 [EGA]2 | [DGB]2 [Gd]3 [Fc] [GB] [GB]3 [CDA]2 | %24
[M:5/4] [B,DG]2- [B,DG]2- [B,DG]6 |] %25
V:2
 z6 z4 [G,B,][G,B,] | [G,B,D]3 [G,B,D] [G,B,D]2 [D,A,D]2 [D,B,D]2 [D,F,D]2 | %2
 [G,D]3 [G,D] [G,E]2 [G,D]6 | [D,A,]2 [D,D]3 [D,D] [D,D] [D,D]3 [D,D]2 | [G,DG]6- [G,DG]4 [G,B,]2 | %5
 [G,B,D]3 [G,B,D][K:bass] [G,B,D]2 [D,A,D]2 [D,B,D]2 [D,F,D]2 | [G,D]3 [G,D] [G,E]2 [G,D]6 | %7
 [D,A,]2 [D,D]3 [D,D] [D,D] [D,D]3 D,2 | G,12 | D,3 D, D,2 D,2 D,2 D,2 | G,3 G, G,2 G,4 G,2 | %11
 D,3 D, D,2 D,2 D,2 D,2 | [G,DG]3 [G,^CG] [G,DG]2 [G,B,D]4 [G,B,D]2 | %13
 [CG]3 [CF] [CG]2 [B,DG]2 [G,DG]2 [G,B,=F]2 | [C,G,]3 [C,G,] [C,G,]2 .[C,G,]6 | %15
 [D,G,]2 [D,B,]3 [D,A,] [D,D] [D,D]3 D,2 | G,,12 | %17
 [G,B,G]2 [G,DG]2 [G,B,D]2 [G,B,G]2 [G,DG]2 [G,B,D]2 | %18
 [A,DF]2[K:bass] [F,D]2 [E,D]2 [D,A,]4 [D,D]2 | %19
 [D,D]2 [D,D]2 [D,D]2 [D,D]2 [D,D]2[K:treble] [CDF]2 | [B,DG]2 [B,DG]2 [A,CF]2 [G,B,G]4 [G,DG]2 | %21
 [G,B,G]2 [G,DG]2 [G,B,D]2 [G,B,G]2 [G,DG]2[K:bass] [G,B,]2 | %22
 [C,C]2 [CG]2 [C,C]2 [^C,A,]2 C,2 C,2 | D,2 [D,B,]3 [D,A,] [D,D] [D,D]3 D,2 | %24
[M:5/4] G,,2- G,,2- G,,6 |] %25

